X:1
T:Rimington, LM
T:Rimington, LM
T:Francis Duckworth, 1904
T:Public Domain Courtesy of the Cyber Hymnal™
C:Francis Duckworth, 1904
Z:Public Domain
Z:Courtesy of the Cyber Hymnal™
%%score ( 1 2 ) ( 3 4 )
L:1/8
M:4/4
K:F
V:1 treble 
V:2 treble 
V:3 bass 
V:4 bass 
V:1
 [FA]4 | [EG]2 F2 [Gc]2 [FA]2 | [FG]4 [EG]4 | F4 [FA]4 | [FA]2 [Fd]2 [Fc]2 [FA]2 | [DF]4 [FB]4 | %6
 [EG]8 | [EG]4 [EG]2 [EB]2 | [FA]6 [FA]2 | [FA]2 [_EF]2 [DF]2 [FB]2 | [EG]6 [EG]2 | [Fc]4 [EB]4 | %12
 [FA]6 [DG]2 | [CF]4 [CE]4 | [CF]4 |] %15
V:2
 x4 | x8 | x8 | F4 x4 | x8 | x8 | x8 | x8 | x8 | x8 | x8 | x8 | x8 | x8 | x4 |] %15
V:3
 [F,C]4 | [C,B,]2 [D,A,]2 [E,G,]2 [F,C]2 | [B,,D]4 (C2 B,2) | [F,A,]4 [F,C]4 | %4
 [F,C]2 B,2 [A,C]2 [F,C]2 | B,4 [G,D]4 | [C,C]8 | [C,B,]4 [C,B,]2 [C,C]2 | [F,C]6 [F,C]2 | %9
 C4 B,2 D2 | C6 [B,C]2 | [A,C]4 [G,C]4 | ([F,C]2 [A,,_E]2 [B,,D]2) [B,,B,]2 | [C,A,]4 (G,2 B,2) | %14
 [F,A,]4 |] %15
V:4
 x4 | x8 | x4 C,4 | x8 | x8 | B,4 x4 | x8 | x8 | x8 | F,2 A,2 B,4 | C6 x2 | x8 | x8 | x4 C,4 | %14
 x4 |] %15

